images/34.svg

<svg fill="none" height="311" viewBox="0 0 669 311" width="669" xmlns="http://www.w3.org/2000/svg" xmlns:xlink="http://www.w3.org/1999/xlink"><clipPath id="a"><path d="m0 .587891h669v309.588h-669z"/></clipPath><g clip-path="url(#a)" fill="#fff"><path d="m300.267 113.804c-.879-9.636-2.727-19.0483-5.495-27.9772-2.854-9.209-6.714-17.9924-11.469-26.1039-4.915-8.384-10.839-16.1364-17.607-23.0436-10.135-10.3437-21.983-18.6503-35.216-24.6906-12.654-5.77558-26.401-9.401-40.861-10.77563-13.984-1.329731-28.424-.53251-42.918 2.36844-14.376 2.87774-28.593 7.78489-42.27 14.58989-12.7924 6.3747-24.3838 15.141-34.4489 26.0544-20.5683 22.3006-31.717 50.6135-30.587 77.6772.4226 10.107 2.5465 19.678 6.3143 28.448 4.0372 9.396 9.8422 17.608 17.254 24.407 8.8345 8.104 19.3779 13.723 31.3378 16.704 11.0218 2.748 22.7248 3.113 34.7818 1.089 21.398-3.595 42.092-14.479 58.911-30.869v25.186h15.745v-77.973h-.287l-2.258 5.691c-4.592 11.48-11.367 22.122-20.14 31.633-7.667 8.313-16.382 15.218-25.906 20.53-9.266 5.165-18.913 8.617-28.676 10.257-9.909 1.664-19.449 1.382-28.3581-.838-9.3793-2.337-17.6209-6.72-24.494-13.025-5.7586-5.281-10.2757-11.679-13.4274-19.014-3.0078-7-4.7059-14.698-5.048-22.881-.4613-11.046 1.6316-22.8406 6.0527-34.1116 4.5898-11.7013 11.4443-22.5419 20.3717-32.2201 8.7617-9.5 18.8191-17.1147 29.8921-22.6317 12.424-6.1828 25.32-10.6379 38.333-13.2432 12.985-2.5991 25.881-3.3158 38.333-2.1331 26.059 2.4768 48.988 13.1301 66.309 30.8052 11.666 11.9057 20.17 26.299 25.279 42.7821 2.441 7.8778 4.074 16.2034 4.854 24.7434.77 8.424.714 17.132-.164 25.882-1.772 17.677-6.775 35.23-14.872 52.174-8.354 17.488-19.661 33.569-33.602 47.798-7.932 8.096-16.574 15.413-25.686 21.751-8.875 6.172-18.262 11.461-27.898 15.718-9.486 4.192-19.259 7.404-29.048 9.55-9.761 2.139-19.566 3.223-29.145 3.223-14.959 0-29.1825-2.602-42.2755-7.735-13.6209-5.341-25.6613-13.289-35.7883-23.623-11.8035-12.047-20.3671-26.632-25.4538-43.352-2.4303-7.987-4.031-16.426-4.7585-25.082-.0264-.317-.0496-.635-.0743-.954h-15.8036c.0510841.76.106812 1.519.17028 2.274.820441 9.762 2.63315 19.299 5.3855 28.349 2.84058 9.336 6.70752 18.237 11.49542 26.457 4.9506 8.497 10.932 16.35 17.7804 23.339 11.6936 11.935 25.5869 21.109 41.2929 27.267 14.9336 5.854 31.0935 8.823 48.0295 8.823 43.959 0 88.803-20.037 123.036-54.974 15.159-15.471 27.461-32.979 36.566-52.035 8.883-18.593 14.378-37.902 16.333-57.396.977-9.747 1.038-19.466.177-28.888z"/><path d="m267.669 94.2264c-4.509-14.5497-11.992-27.2309-22.242-37.6908-15.209-15.5218-35.437-24.8857-58.494-27.0776-11.226-1.0666-22.889-.4133-34.664 1.9443-11.923 2.387-23.761 6.4799-35.187 12.1657-9.693 4.8298-18.5245 11.5249-26.2428 19.8934-7.8623 8.5248-13.8856 18.0373-17.9011 28.2758-3.7864 9.6498-5.5821 19.6718-5.1935 28.9798.2771 6.644 1.6347 12.844 4.0341 18.429 2.4427 5.686 5.9304 10.63 10.3654 14.7 10.5852 9.709 25.5849 13.516 42.2369 10.72 8.336-1.401 16.621-4.373 24.624-8.834 8.355-4.658 16.019-10.736 22.778-18.066 7.723-8.373 13.676-17.71 17.695-27.752l2.508-6.316h-55.914v15.745h30.353c-1.887 2.633-3.966 5.182-6.229 7.638-5.626 6.099-11.972 11.139-18.867 14.983-6.424 3.582-13.005 5.956-19.559 7.057-6.808 1.144-19.626 1.782-28.971-6.79-7.2029-6.606-9.0357-15.702-9.3066-22.17-.2988-7.136 1.1254-14.938 4.1177-22.5652 3.2523-8.2911 8.3762-16.364 14.8139-23.3455 6.417-6.9567 13.714-12.4985 21.68-16.4692 10.181-5.0666 20.699-8.7075 31.257-10.8205 10.267-2.0542 20.386-2.63 30.08-1.709 9.552.9071 18.539 3.2586 26.709 6.9892 8.283 3.7803 15.69 8.9723 22.017 15.429 8.479 8.6518 14.683 19.1921 18.445 31.3238 3.764 12.1484 4.962 25.4024 3.56 39.3934-1.444 14.404-5.562 28.795-12.24 42.773-7.006 14.663-16.516 28.178-28.267 40.172-6.69 6.828-13.964 12.991-21.621 18.315-7.39 5.139-15.182 9.532-23.164 13.059-7.755 3.427-15.714 6.046-23.655 7.786-7.768 1.703-15.529 2.565-23.07 2.565-11.401 0-22.139-1.944-31.9195-5.779-9.867-3.868-18.5729-9.61-25.8779-17.063-8.5806-8.756-14.8299-19.44-18.5745-31.753-1.7338-5.7-2.9041-11.638-3.5109-17.776h-15.819c.6579 7.734 2.0867 15.259 4.2477 22.364 4.4908 14.762 12.0264 27.612 22.3965 38.197 8.8716 9.055 19.4305 16.022 31.3826 20.708 11.6193 4.556 24.294 6.865 37.674 6.865 8.672 0 17.57-.986 26.444-2.93 8.968-1.964 17.934-4.915 26.651-8.766 8.901-3.932 17.579-8.824 25.794-14.538 8.465-5.887 16.499-12.69 23.88-20.223 12.967-13.235 23.475-28.176 31.23-44.409 7.466-15.625 12.076-31.773 13.702-47.996 1.614-16.103.206-31.457-4.188-45.6332z"/><path d="m355.151 86.0271c3.537 3.5759 7.69 6.3329 12.46 8.2694 4.766 1.9366 9.87 2.9056 15.308 2.9056 6.853 0 13.091-1.4892 18.717-4.4691 5.624-2.9783 10.093-7.3359 13.408-13.0744 3.315-5.7353 4.973-12.6998 4.973-20.8965 0-.9675-.039-1.9551-.112-2.9613-.074-1.0062-.15-2.0294-.223-3.0728h-36.763v12.6271h21.09c-.392 3.017-1.201 5.6982-2.431 8.0449-1.639 3.1286-4.023 5.514-7.151 7.1518-3.129 1.6393-6.966 2.4582-11.51 2.4582-4.173 0-7.989-1.0619-11.453-3.1842-3.465-2.1239-6.24-5.1409-8.326-9.0512-2.086-3.9102-3.128-8.5852-3.128-14.0233 0-4.096.576-7.7834 1.732-11.062 1.155-3.2772 2.756-6.0341 4.805-8.2695 2.048-2.2353 4.469-3.9474 7.263-5.1409 2.795-1.1904 5.829-1.7879 9.107-1.7879 5.065 0 9.387 1.2848 12.962 3.8545 3.574 2.5697 6.442 6.4629 8.603 11.6766l13.298-7.0403c-1.938-5.0651-4.749-9.2741-8.437-12.6271-3.687-3.3529-7.822-5.8669-12.402-7.5434-4.582-1.6765-9.257-2.5139-14.024-2.5139-5.662 0-10.878.9504-15.644 2.8498-4.768 1.8994-8.902 4.6564-12.404 8.2695-3.502 3.6145-6.221 7.8963-8.156 12.8499-1.938 4.9552-2.906 10.4475-2.906 16.4816s1.006 11.528 3.017 16.4816c2.011 4.9551 4.786 9.2183 8.325 12.7942z"/><path d="m442.926 65.6894c0-4.2462 1.079-7.5047 3.24-9.7772 2.159-2.2709 4.877-3.4087 8.158-3.4087h6.034v-15.6441h-2.906c-3.056 0-5.83.7647-8.325 2.291-2.497 1.5279-4.563 3.9675-6.201 7.319v-8.158h-14.638v57.547h14.638v-30.1706z"/><path d="m514.101 88.8211c2.718-2.6812 4.805-5.867 6.257-9.5543s2.18-7.7663 2.18-12.2354c0-5.9583-1.305-11.2106-3.91-15.7556-2.609-4.5434-6.146-8.0821-10.617-10.6162-4.469-2.531-9.573-3.7988-15.308-3.7988-4.246 0-8.195.7261-11.845 2.1796-3.65 1.452-6.816 3.5388-9.499 6.257-2.681 2.7199-4.768 5.9227-6.257 9.61-1.49 3.6874-2.235 7.7292-2.235 12.124 0 5.8855 1.285 11.1177 3.854 15.6998 2.57 4.5821 6.107 8.1394 10.617 10.672 4.506 2.5309 9.627 3.7987 15.364 3.7987 4.319 0 8.286-.726 11.901-2.1795 3.613-1.4521 6.778-3.5202 9.498-6.2013zm-15.533-5.754c-1.826.7818-3.781 1.1734-5.866 1.1734-2.757 0-5.253-.6703-7.487-2.0108-2.235-1.3406-3.986-3.2957-5.252-5.867-1.268-2.5696-1.899-5.6796-1.899-9.3298 0-2.7554.371-5.1765 1.117-7.2632.743-2.0851 1.77-3.8731 3.073-5.3638 1.302-1.4892 2.85-2.6068 4.638-3.353 1.788-.743 3.724-1.1176 5.811-1.1176 2.83 0 5.364.6702 7.598 2.0108 2.235 1.3406 4.003 3.2787 5.308 5.8112 1.302 2.5341 1.955 5.6255 1.955 9.2741 0 2.6811-.373 5.1038-1.118 7.2632-.746 2.161-1.788 3.9675-3.128 5.4196-1.341 1.452-2.924 2.5697-4.75 3.3529z"/><path d="m565.119 59.8798c1.341 4.3964 2.384 7.8608 3.129 10.3918l7.71 25.5884h14.527l17.432-57.5469h-15.308l-6.928 25.5884c-.521 1.7152-1.006 3.4087-1.452 5.0837-.446 1.6749-.932 3.5944-1.452 5.7554-1.34-4.469-2.421-8.0449-3.24-10.7276l-7.71-25.7015h-13.075l-7.599 25.7015c-.522 1.7879-1.025 3.5202-1.509 5.1966-.486 1.6765-1.062 3.5589-1.732 5.6425-.522-2.0852-1.007-3.9675-1.452-5.6425-.448-1.6764-.932-3.4087-1.453-5.1966l-6.927-25.7015h-15.533l17.544 57.547h14.415l7.599-25.5885c.819-2.531 1.825-5.9954 3.017-10.3917z"/><path d="m383.898 147.982-23.689-32.628h-14.638v78.219h15.42v-53.413c1.19 1.491 2.235 2.85 3.128 4.079s1.825 2.514 2.794 3.855l15.533 21.008h2.57l15.644-21.231c1.489-2.011 3.388-4.582 5.698-7.711v53.413h15.421v-78.219h-14.526z"/><path d="m436.919 213.073h15.979l34.808-76.803h-16.091l-10.728 23.355c-.82 1.862-1.899 4.357-3.24 7.486-1.341-3.203-2.385-5.735-3.129-7.599l-9.721-23.242h-16.762l22.126 47.378-13.24 29.425z"/><path d="m383.898 245.702-23.689-32.629h-14.638v78.219h15.42v-53.413c1.19 1.491 2.235 2.85 3.128 4.079.893 1.23 1.825 2.514 2.794 3.855l15.533 21.008h2.57l15.644-21.231c1.489-2.011 3.388-4.582 5.698-7.711v53.413h15.421v-78.219h-14.526z"/><path d="m474.682 236.092c-4.469-2.531-9.573-3.799-15.308-3.799-4.246 0-8.195.726-11.845 2.18-3.65 1.452-6.816 3.538-9.499 6.257-2.681 2.719-4.768 5.922-6.257 9.61-1.491 3.687-2.235 7.729-2.235 12.124 0 5.885 1.285 11.117 3.854 15.699 2.57 4.582 6.107 8.14 10.617 10.672 4.506 2.531 9.627 3.799 15.363 3.799 4.319 0 8.287-.726 11.901-2.18 3.614-1.452 6.779-3.52 9.499-6.201 2.718-2.681 4.805-5.867 6.257-9.554s2.18-7.766 2.18-12.235c0-5.959-1.305-11.211-3.912-15.756-2.609-4.543-6.146-8.082-10.616-10.616zm-1.565 33.635c-.746 2.161-1.788 3.967-3.128 5.419-1.341 1.452-2.925 2.57-4.75 3.353-1.826.782-3.781 1.174-5.867 1.174-2.757 0-5.252-.671-7.486-2.011-2.233-1.341-3.986-3.296-5.252-5.867-1.268-2.57-1.899-5.68-1.899-9.33 0-2.755.371-5.176 1.117-7.263.743-2.085 1.77-3.873 3.073-5.364 1.302-1.489 2.85-2.607 4.638-3.353 1.788-.743 3.724-1.118 5.811-1.118 2.83 0 5.364.671 7.599 2.011 2.235 1.341 4.003 3.279 5.308 5.811 1.302 2.535 1.955 5.626 1.955 9.275 0 2.681-.373 5.103-1.117 7.263z"/><path d="m537.648 234.974c-3.091-1.788-6.576-2.681-10.447-2.681-4.098 0-7.749 1.08-10.951 3.24-1.925 1.299-3.526 3.125-4.805 5.474v-7.262h-14.638v57.547h14.638v-33.858c0-4.023 1.079-7.076 3.24-9.163 2.16-2.085 4.917-3.128 8.27-3.128 2.829 0 5.196.988 7.096 2.961 1.899 1.975 2.85 4.824 2.85 8.548v34.64h14.637v-37.211c0-4.395-.876-8.231-2.625-11.509-1.751-3.277-4.173-5.812-7.263-7.599z"/><path d="m596.927 236.092c-4.098-2.531-8.828-3.799-14.191-3.799-4.173 0-7.953.726-11.342 2.18-3.39 1.452-6.351 3.52-8.884 6.201-2.534 2.681-4.489 5.867-5.867 9.554-1.379 3.687-2.066 7.766-2.066 12.236 0 6.034 1.229 11.323 3.687 15.867s5.847 8.065 10.169 10.558c4.319 2.496 9.311 3.744 14.974 3.744 3.947 0 7.654-.671 11.117-2.011 3.463-1.341 6.517-3.409 9.163-6.202 2.644-2.794 4.71-6.312 6.201-10.559l-12.291-4.582c-.969 2.609-2.18 4.694-3.632 6.257-1.452 1.565-3.091 2.72-4.916 3.465-1.827.746-3.893 1.117-6.201 1.117-2.681 0-5.028-.614-7.041-1.843-2.01-1.229-3.594-3.146-4.749-5.756-.834-1.882-1.365-4.156-1.597-6.816h40.427c.073-.52.112-1.097.112-1.732v-1.62c0-5.96-1.157-11.193-3.465-15.7-2.309-4.507-5.514-8.027-9.61-10.559zm-24.081 12.515c1.155-1.565 2.551-2.699 4.191-3.408 1.637-.708 3.537-1.062 5.698-1.062 3.873 0 7.001 1.452 9.387 4.357 1.458 1.779 2.47 4.202 3.037 7.264h-25.256c.095-.482.2-.948.318-1.397.596-2.271 1.47-4.19 2.625-5.755z"/><path d="m652.91 233.745-10.728 23.354c-.82 1.863-1.899 4.358-3.24 7.486-1.341-3.202-2.385-5.735-3.128-7.599l-9.722-23.241h-16.762l22.126 47.378-13.075 29.053h15.979l34.64-76.431h-16.092z"/></g></svg>

<svg width="669" height="311" viewBox="0 0 669 311" fill="none" xmlns="http://www.w3.org/2000/svg">
<g clip-path="url(#clip0_1_975)">
<path d="M300.267 113.804C299.388 104.168 297.54 94.7557 294.772 85.8268C291.918 76.6178 288.058 67.8344 283.303 59.7229C278.388 51.3389 272.464 43.5865 265.696 36.6793C255.561 26.3356 243.713 18.029 230.48 11.9887C217.826 6.21312 204.079 2.5877 189.619 1.21307C175.635 -0.116661 161.195 0.68056 146.701 3.58151C132.325 6.45925 118.108 11.3664 104.431 18.1714C91.6386 24.5461 80.0472 33.3124 69.9821 44.2258C49.4138 66.5264 38.2651 94.8393 39.3951 121.903C39.8177 132.01 41.9416 141.581 45.7094 150.351C49.7466 159.747 55.5516 167.959 62.9634 174.758C71.7979 182.862 82.3413 188.481 94.3012 191.462C105.323 194.21 117.026 194.575 129.083 192.551C150.481 188.956 171.175 178.072 187.994 161.682V186.868H203.739V108.895H203.452L201.194 114.586C196.602 126.066 189.827 136.708 181.054 146.219C173.387 154.532 164.672 161.437 155.148 166.749C145.882 171.914 136.235 175.366 126.472 177.006C116.563 178.67 107.023 178.388 98.1139 176.168C88.7346 173.831 80.493 169.448 73.6199 163.143C67.8613 157.862 63.3442 151.464 60.1925 144.129C57.1847 137.129 55.4866 129.431 55.1445 121.248C54.6832 110.202 56.7761 98.4074 61.1972 87.1364C65.787 75.4351 72.6415 64.5945 81.5689 54.9163C90.3306 45.4163 100.388 37.8016 111.461 32.2846C123.885 26.1018 136.781 21.6467 149.794 19.0414C162.779 16.4423 175.675 15.7256 188.127 16.9083C214.186 19.3851 237.115 30.0384 254.436 47.7135C266.102 59.6192 274.606 74.0125 279.715 90.4956C282.156 98.3734 283.789 106.699 284.569 115.239C285.339 123.663 285.283 132.371 284.405 141.121C282.633 158.798 277.63 176.351 269.533 193.295C261.179 210.783 249.872 226.864 235.931 241.093C227.999 249.189 219.357 256.506 210.245 262.844C201.37 269.016 191.983 274.305 182.347 278.562C172.861 282.754 163.088 285.966 153.299 288.112C143.538 290.251 133.733 291.335 124.154 291.335C109.195 291.335 94.9715 288.733 81.8785 283.6C68.2576 278.259 56.2172 270.311 46.0902 259.977C34.2867 247.93 25.7231 233.345 20.6364 216.625C18.2061 208.638 16.6054 200.199 15.8779 191.543C15.8515 191.226 15.8283 190.908 15.8036 190.589H0C0.0510841 191.349 0.106812 192.108 0.17028 192.863C0.990721 202.625 2.80343 212.162 5.55578 221.212C8.39636 230.548 12.2633 239.449 17.0512 247.669C22.0018 256.166 27.9832 264.019 34.8316 271.008C46.5252 282.943 60.4185 292.117 76.1245 298.275C91.0581 304.129 107.218 307.098 124.154 307.098C168.113 307.098 212.957 287.061 247.19 252.124C262.349 236.653 274.651 219.145 283.756 200.089C292.639 181.496 298.134 162.187 300.089 142.693C301.066 132.946 301.127 123.227 300.266 113.805L300.267 113.804Z" fill="white"/>
<path d="M267.669 94.2264C263.16 79.6767 255.677 66.9955 245.427 56.5356C230.218 41.0138 209.99 31.6499 186.933 29.458C175.707 28.3914 164.044 29.0447 152.269 31.4023C140.346 33.7893 128.508 37.8822 117.082 43.568C107.389 48.3978 98.5575 55.0929 90.8392 63.4614C82.9769 71.9862 76.9536 81.4987 72.9381 91.7372C69.1517 101.387 67.356 111.409 67.7446 120.717C68.0217 127.361 69.3793 133.561 71.7787 139.146C74.2214 144.832 77.7091 149.776 82.1441 153.846C92.7293 163.555 107.729 167.362 124.381 164.566C132.717 163.165 141.002 160.193 149.005 155.732C157.36 151.074 165.024 144.996 171.783 137.666C179.506 129.293 185.459 119.956 189.478 109.914L191.986 103.598H136.072V119.343H166.425C164.538 121.976 162.459 124.525 160.196 126.981C154.57 133.08 148.224 138.12 141.329 141.964C134.905 145.546 128.324 147.92 121.77 149.021C114.962 150.165 102.144 150.803 92.799 142.231C85.5961 135.625 83.7633 126.529 83.4924 120.061C83.1936 112.925 84.6178 105.123 87.6101 97.4958C90.8624 89.2047 95.9863 81.1318 102.424 74.1503C108.841 67.1936 116.138 61.6518 124.104 57.6811C134.285 52.6145 144.803 48.9736 155.361 46.8606C165.628 44.8064 175.747 44.2306 185.441 45.1516C194.993 46.0587 203.98 48.4102 212.15 52.1408C220.433 55.9211 227.84 61.1131 234.167 67.5698C242.646 76.2216 248.85 86.7619 252.612 98.8936C256.376 111.042 257.574 124.296 256.172 138.287C254.728 152.691 250.61 167.082 243.932 181.06C236.926 195.723 227.416 209.238 215.665 221.232C208.975 228.06 201.701 234.223 194.044 239.547C186.654 244.686 178.862 249.079 170.88 252.606C163.125 256.033 155.166 258.652 147.225 260.392C139.457 262.095 131.696 262.957 124.155 262.957C112.754 262.957 102.016 261.013 92.2355 257.178C82.3685 253.31 73.6626 247.568 66.3576 240.115C57.777 231.359 51.5277 220.675 47.7831 208.362C46.0493 202.662 44.879 196.724 44.2722 190.586H28.4532C29.1111 198.32 30.5399 205.845 32.7009 212.95C37.1917 227.712 44.7273 240.562 55.0974 251.147C63.969 260.202 74.5279 267.169 86.48 271.855C98.0993 276.411 110.774 278.72 124.154 278.72C132.826 278.72 141.724 277.734 150.598 275.79C159.566 273.826 168.532 270.875 177.249 267.024C186.15 263.092 194.828 258.2 203.043 252.486C211.508 246.599 219.542 239.796 226.923 232.263C239.89 219.028 250.398 204.087 258.153 187.854C265.619 172.229 270.229 156.081 271.855 139.858C273.469 123.755 272.061 108.401 267.667 94.2248L267.669 94.2264Z" fill="white"/>
<path d="M355.151 86.0271C358.688 89.603 362.841 92.36 367.611 94.2965C372.377 96.2331 377.481 97.2021 382.919 97.2021C389.772 97.2021 396.01 95.7129 401.636 92.733C407.26 89.7547 411.729 85.3971 415.044 79.6586C418.359 73.9233 420.017 66.9588 420.017 58.7621C420.017 57.7946 419.978 56.807 419.905 55.8008C419.831 54.7946 419.755 53.7714 419.682 52.728H382.919V65.3551H404.009C403.617 68.3721 402.808 71.0533 401.578 73.4C399.939 76.5286 397.555 78.914 394.427 80.5518C391.298 82.1911 387.461 83.01 382.917 83.01C378.744 83.01 374.928 81.9481 371.464 79.8258C367.999 77.7019 365.224 74.6849 363.138 70.7746C361.052 66.8644 360.01 62.1894 360.01 56.7513C360.01 52.6553 360.586 48.9679 361.742 45.6893C362.897 42.4121 364.498 39.6552 366.547 37.4198C368.595 35.1845 371.016 33.4724 373.81 32.2789C376.605 31.0885 379.639 30.491 382.917 30.491C387.982 30.491 392.304 31.7758 395.879 34.3455C399.453 36.9152 402.321 40.8084 404.482 46.0221L417.78 38.9818C415.842 33.9167 413.031 29.7077 409.343 26.3547C405.656 23.0018 401.521 20.4878 396.941 18.8113C392.359 17.1348 387.684 16.2974 382.917 16.2974C377.255 16.2974 372.039 17.2478 367.273 19.1472C362.505 21.0466 358.371 23.8036 354.869 27.4167C351.367 31.0312 348.648 35.313 346.713 40.2666C344.775 45.2218 343.807 50.7141 343.807 56.7482C343.807 62.7823 344.813 68.2762 346.824 73.2298C348.835 78.1849 351.61 82.4481 355.149 86.024L355.151 86.0271Z" fill="white"/>
<path d="M442.926 65.6894C442.926 61.4432 444.005 58.1847 446.166 55.9122C448.325 53.6413 451.043 52.5035 454.324 52.5035H460.358V36.8594H457.452C454.396 36.8594 451.622 37.6241 449.127 39.1504C446.63 40.6783 444.564 43.1179 442.926 46.4694V38.3114H428.288V95.8584H442.926V65.6878V65.6894Z" fill="white"/>
<path d="M514.101 88.8211C516.819 86.1399 518.906 82.9541 520.358 79.2668C521.81 75.5795 522.538 71.5005 522.538 67.0314C522.538 61.0731 521.233 55.8208 518.628 51.2758C516.019 46.7324 512.482 43.1937 508.011 40.6596C503.542 38.1286 498.438 36.8608 492.703 36.8608C488.457 36.8608 484.508 37.5869 480.858 39.0404C477.208 40.4924 474.042 42.5792 471.359 45.2974C468.678 48.0173 466.591 51.2201 465.102 54.9074C463.612 58.5948 462.867 62.6366 462.867 67.0314C462.867 72.9169 464.152 78.1491 466.721 82.7312C469.291 87.3133 472.828 90.8706 477.338 93.4032C481.844 95.9341 486.965 97.2019 492.702 97.2019C497.021 97.2019 500.988 96.4759 504.603 95.0224C508.216 93.5703 511.381 91.5022 514.101 88.8211ZM498.568 83.0671C496.742 83.8489 494.787 84.2405 492.702 84.2405C489.945 84.2405 487.449 83.5702 485.215 82.2297C482.98 80.8891 481.229 78.934 479.963 76.3627C478.695 73.7931 478.064 70.6831 478.064 67.0329C478.064 64.2775 478.435 61.8564 479.181 59.7697C479.924 57.6846 480.951 55.8966 482.254 54.4059C483.556 52.9167 485.104 51.7991 486.892 51.0529C488.68 50.3099 490.616 49.9353 492.703 49.9353C495.533 49.9353 498.067 50.6055 500.301 51.9461C502.536 53.2867 504.304 55.2248 505.609 57.7573C506.911 60.2914 507.564 63.3828 507.564 67.0314C507.564 69.7125 507.191 72.1352 506.446 74.2946C505.7 76.4556 504.658 78.2621 503.318 79.7142C501.977 81.1662 500.394 82.2839 498.568 83.0671Z" fill="white"/>
<path d="M565.119 59.8798C566.46 64.2762 567.503 67.7406 568.248 70.2716L575.958 95.86H590.485L607.917 38.3131H592.609L585.681 63.9015C585.16 65.6167 584.675 67.3102 584.229 68.9852C583.783 70.6601 583.297 72.5796 582.777 74.7406C581.437 70.2716 580.356 66.6957 579.537 64.013L571.827 38.3115H558.752L551.153 64.013C550.631 65.8009 550.128 67.5332 549.644 69.2096C549.158 70.8861 548.582 72.7685 547.912 74.8521C547.39 72.7669 546.905 70.8846 546.46 69.2096C546.012 67.5332 545.528 65.8009 545.007 64.013L538.08 38.3115H522.547L540.091 95.8585H554.506L562.105 70.27C562.924 67.739 563.93 64.2746 565.122 59.8783L565.119 59.8798Z" fill="white"/>
<path d="M383.898 147.982L360.209 115.354H345.571V193.573H360.991V140.16C362.181 141.651 363.226 143.01 364.119 144.239C365.012 145.468 365.944 146.753 366.913 148.094L382.446 169.102H385.016L400.66 147.871C402.149 145.86 404.048 143.289 406.358 140.16V193.573H421.779V115.354H407.253L383.898 147.982Z" fill="white"/>
<path d="M436.919 213.073H452.898L487.706 136.27H471.615L460.887 159.625C460.067 161.487 458.988 163.982 457.647 167.111C456.306 163.908 455.262 161.376 454.518 159.512L444.797 136.27H428.035L450.161 183.648L436.921 213.073H436.919Z" fill="white"/>
<path d="M383.898 245.702L360.209 213.073H345.571V291.292H360.991V237.879C362.181 239.37 363.226 240.729 364.119 241.958C365.012 243.188 365.944 244.472 366.913 245.813L382.446 266.821H385.016L400.66 245.59C402.149 243.579 404.048 241.008 406.358 237.879V291.292H421.779V213.073H407.253L383.898 245.702Z" fill="white"/>
<path d="M474.682 236.092C470.213 233.561 465.109 232.293 459.374 232.293C455.128 232.293 451.179 233.019 447.529 234.473C443.879 235.925 440.713 238.011 438.03 240.73C435.349 243.449 433.262 246.652 431.773 250.34C430.282 254.027 429.538 258.069 429.538 262.464C429.538 268.349 430.823 273.581 433.392 278.163C435.962 282.745 439.499 286.303 444.009 288.835C448.515 291.366 453.636 292.634 459.372 292.634C463.691 292.634 467.659 291.908 471.273 290.454C474.887 289.002 478.052 286.934 480.772 284.253C483.49 281.572 485.577 278.386 487.029 274.699C488.481 271.012 489.209 266.933 489.209 262.464C489.209 256.505 487.904 251.253 485.297 246.708C482.688 242.165 479.151 238.626 474.681 236.092H474.682ZM473.117 269.727C472.371 271.888 471.329 273.694 469.989 275.146C468.648 276.598 467.064 277.716 465.239 278.499C463.413 279.281 461.458 279.673 459.372 279.673C456.615 279.673 454.12 279.002 451.886 277.662C449.653 276.321 447.9 274.366 446.634 271.795C445.366 269.225 444.735 266.115 444.735 262.465C444.735 259.71 445.106 257.289 445.852 255.202C446.595 253.117 447.622 251.329 448.925 249.838C450.227 248.349 451.775 247.231 453.563 246.485C455.351 245.742 457.287 245.367 459.374 245.367C462.204 245.367 464.738 246.038 466.973 247.378C469.208 248.719 470.976 250.657 472.281 253.189C473.583 255.724 474.236 258.815 474.236 262.464C474.236 265.145 473.863 267.567 473.119 269.727H473.117Z" fill="white"/>
<path d="M537.648 234.974C534.557 233.186 531.072 232.293 527.201 232.293C523.103 232.293 519.452 233.373 516.25 235.533C514.325 236.832 512.724 238.658 511.445 241.007V233.745H496.807V291.292H511.445V257.434C511.445 253.411 512.524 250.358 514.685 248.271C516.845 246.186 519.602 245.143 522.955 245.143C525.784 245.143 528.151 246.131 530.051 248.104C531.95 250.079 532.901 252.928 532.901 256.652V291.292H547.538V254.081C547.538 249.686 546.662 245.85 544.913 242.572C543.162 239.295 540.74 236.76 537.65 234.973L537.648 234.974Z" fill="white"/>
<path d="M596.927 236.092C592.829 233.561 588.099 232.293 582.736 232.293C578.563 232.293 574.783 233.019 571.394 234.473C568.004 235.925 565.043 237.993 562.51 240.674C559.976 243.355 558.021 246.541 556.643 250.228C555.264 253.915 554.577 257.994 554.577 262.464C554.577 268.498 555.806 273.787 558.264 278.331C560.722 282.875 564.111 286.396 568.433 288.889C572.752 291.385 577.744 292.633 583.407 292.633C587.354 292.633 591.061 291.962 594.524 290.622C597.987 289.281 601.041 287.213 603.687 284.42C606.331 281.626 608.397 278.108 609.888 273.861L597.597 269.279C596.628 271.888 595.417 273.973 593.965 275.536C592.513 277.101 590.874 278.256 589.049 279.001C587.222 279.747 585.156 280.118 582.848 280.118C580.167 280.118 577.82 279.504 575.807 278.275C573.797 277.046 572.213 275.129 571.058 272.519C570.224 270.637 569.693 268.363 569.461 265.703H609.888C609.961 265.183 610 264.606 610 263.971V262.351C610 256.391 608.843 251.158 606.535 246.651C604.226 242.144 601.021 238.624 596.925 236.092H596.927ZM572.846 248.607C574.001 247.042 575.397 245.908 577.037 245.199C578.674 244.491 580.574 244.137 582.735 244.137C586.608 244.137 589.736 245.589 592.122 248.494C593.58 250.273 594.592 252.696 595.159 255.758H569.903C569.998 255.276 570.103 254.81 570.221 254.361C570.817 252.09 571.691 250.171 572.846 248.606V248.607Z" fill="white"/>
<path d="M652.91 233.745L642.182 257.099C641.362 258.962 640.283 261.457 638.942 264.585C637.601 261.383 636.557 258.85 635.814 256.986L626.092 233.745H609.33L631.456 281.123L618.381 310.176H634.36L669 233.745H652.908H652.91Z" fill="white"/>
</g>
<defs>
<clipPath id="clip0_1_975">
<rect width="669" height="309.588" fill="white" transform="translate(0 0.587891)"/>
</clipPath>
</defs>
</svg>
